FINK
CUT[WANN I IN DER FRUEH AUFSTEH]
REG[Europa, Mitteleuropa, Schweiz]
KEY[F0165  08  C 3/4]
MEL[  -1-1-3_-5_  331_
    (-3-51)  2_4_(-2-4-7)  1__0_
    -1-1-3_-5_  331_
    (-3-51)  2_4_(-2-4-7)  1__
    -3-5  -4-72_-2-4  -313_
    -3-5  -4-72_-2-4  -313_0_
    -1-1-3-3-5-5  3_1_
    (-3-51)  2_4_(-2-4-7)  1_0_
    (-3-51)  (-2-4-7)2_(-2-4-7)  (-3-51)3_
    (-3-51)  (-2-4-7)2_(-2-4-7)  1__0_ //] >>
FCT[Staende -, Hirten -, Alm - Lied; Jodler]
